icons-rebrand/svg/assign-privilege-light.svg

<svg width="32" height="32" viewBox="0 0 32 32" fill="none" xmlns="http://www.w3.org/2000/svg">
<path d="M8.354 17.6462C8.2597 17.5551 8.1334 17.5047 8.0023 17.5059C7.8712 17.507 7.74579 17.5596 7.65309 17.6523C7.56039 17.745 7.5078 17.8704 7.50666 18.0015C7.50552 18.1326 7.55592 18.2589 7.647 18.3532L11.793 22.5002H3C2.86739 22.5002 2.74021 22.5529 2.64645 22.6467C2.55268 22.7404 2.5 22.8676 2.5 23.0002C2.5 23.1328 2.55268 23.26 2.64645 23.3538C2.74021 23.4475 2.86739 23.5002 3 23.5002H11.793L7.647 27.6462C7.59924 27.6923 7.56115 27.7475 7.53495 27.8085C7.50874 27.8695 7.49495 27.9351 7.49437 28.0015C7.4938 28.0679 7.50645 28.1337 7.53159 28.1952C7.55673 28.2566 7.59386 28.3125 7.6408 28.3594C7.68775 28.4064 7.74358 28.4435 7.80502 28.4686C7.86647 28.4938 7.93231 28.5064 7.9987 28.5058C8.06509 28.5053 8.1307 28.4915 8.1917 28.4653C8.2527 28.4391 8.30788 28.401 8.354 28.3532L13.354 23.3532C13.4007 23.3069 13.4377 23.2519 13.4629 23.1912C13.4882 23.1305 13.5012 23.0654 13.5012 22.9997C13.5012 22.934 13.4882 22.8689 13.4629 22.8082C13.4377 22.7476 13.4007 22.6925 13.354 22.6462L8.354 17.6462Z" fill="#0F0F0F"/>
<path d="M20.748 13.8381C21.946 13.2233 22.9023 12.2235 23.4632 10.9994C24.0241 9.77524 24.157 8.39803 23.8404 7.08928C23.5238 5.78052 22.7762 4.61629 21.7178 3.78388C20.6594 2.95147 19.3518 2.49926 18.0053 2.5C16.6588 2.50074 15.3517 2.95438 14.2942 3.78795C13.2368 4.62152 12.4904 5.78657 12.1753 7.09567C11.8601 8.40477 11.9944 9.78183 12.5567 11.0053C13.1189 12.2288 14.0764 13.2277 15.275 13.8411C14.029 14.1201 12.835 14.5981 11.739 15.2561C11.683 15.2904 11.6343 15.3354 11.5957 15.3885C11.557 15.4416 11.5293 15.5018 11.5139 15.5656C11.4985 15.6294 11.4959 15.6957 11.5061 15.7605C11.5163 15.8254 11.5392 15.8876 11.5735 15.9436C11.6078 15.9996 11.6528 16.0483 11.7059 16.087C11.759 16.1256 11.8192 16.1534 11.883 16.1688C11.9468 16.1841 12.0131 16.1868 12.0779 16.1765C12.1428 16.1663 12.205 16.1434 12.261 16.1091C13.9906 15.0572 15.9767 14.5025 18.001 14.5061C23.693 14.5061 28.501 18.8891 28.501 24.0761C28.4868 24.4783 28.3826 24.8721 28.1963 25.2288C28.0099 25.5854 27.746 25.8958 27.424 26.1371C25.116 28.1111 19.256 29.0201 14.077 28.2041C13.946 28.1834 13.8121 28.2156 13.7049 28.2937C13.5976 28.3717 13.5257 28.4891 13.505 28.6201C13.4843 28.7511 13.5165 28.885 13.5946 28.9923C13.6726 29.0996 13.79 29.1714 13.921 29.1921C15.27 29.3971 16.631 29.4991 17.995 29.4951C21.871 29.4951 25.951 28.7131 28.073 26.8971C28.5074 26.5644 28.8613 26.1381 29.1085 25.6499C29.3557 25.1617 29.4899 24.6242 29.501 24.0771C29.501 19.2151 25.705 15.0061 20.748 13.8381ZM13.01 8.50712C13.01 7.51822 13.3033 6.55152 13.8527 5.72927C14.4021 4.90702 15.183 4.26616 16.0966 3.88772C17.0102 3.50929 18.0156 3.41027 18.9855 3.6032C19.9554 3.79612 20.8463 4.27233 21.5456 4.97159C22.2448 5.67085 22.721 6.56177 22.9139 7.53167C23.1069 8.50157 23.0079 9.50691 22.6294 10.4205C22.251 11.3342 21.6101 12.1151 20.7879 12.6645C19.9656 13.2139 18.9989 13.5071 18.01 13.5071C16.6843 13.5058 15.4133 12.9786 14.476 12.0412C13.5386 11.1038 13.0113 9.8328 13.01 8.50712Z" fill="#0F0F0F"/>
</svg>

<svg width="32" height="32" viewBox="0 0 32 32" fill="none" xmlns="http://www.w3.org/2000/svg"><path d="M8.354 17.646a.5.5 0 0 0-.707.707l4.146 4.147H3a.5.5 0 1 0 0 1h8.793l-4.146 4.146a.5.5 0 1 0 .707.707l5-5a.498.498 0 0 0 0-.707l-5-5z" fill="#0F0F0F"/><path d="M20.748 13.838a6 6 0 1 0-5.473.003c-1.246.279-2.44.757-3.536 1.415a.5.5 0 0 0 .522.853 11.008 11.008 0 0 1 5.74-1.603c5.692 0 10.5 4.383 10.5 9.57a2.695 2.695 0 0 1-1.077 2.061c-2.308 1.974-8.168 2.883-13.347 2.067a.5.5 0 0 0-.156.988c1.349.205 2.71.307 4.074.303 3.876 0 7.956-.782 10.078-2.598a3.646 3.646 0 0 0 1.428-2.82c0-4.862-3.796-9.071-8.753-10.239zM13.01 8.507a5 5 0 1 1 5 5 5.005 5.005 0 0 1-5-5z" fill="#0F0F0F"/></svg>
